icons/bug-24.svg

<svg width="24" height="24" viewBox="0 0 24 24" fill="none" xmlns="http://www.w3.org/2000/svg">
<path fill-rule="evenodd" clip-rule="evenodd" d="M7.71967 0.21967C8.01256 -0.0732233 8.48744 -0.0732233 8.78033 0.21967L9.98381 1.42315C10.6005 1.15108 11.2826 1 12 1C12.7174 1 13.3995 1.15108 14.0162 1.42315L15.2197 0.21967C15.5126 -0.0732233 15.9874 -0.0732233 16.2803 0.21967C16.5732 0.512563 16.5732 0.987437 16.2803 1.28033L15.3091 2.25158C16.3461 3.16772 17 4.50749 17 6L17 7.10352C17.9416 7.36984 18.6779 8.12518 18.9173 9.07784L20.9146 8.07918C21.2851 7.89394 21.7356 8.04411 21.9208 8.41459C22.1061 8.78507 21.9559 9.23558 21.5854 9.42082L19 10.7135V13.5009L21.7509 13.5044C22.1652 13.5049 22.5005 13.8411 22.5 14.2553C22.4995 14.6695 22.1633 15.0049 21.7491 15.0044L19 15.0009V16C19 16.5812 18.9292 17.1458 18.7957 17.6857C18.809 17.6915 18.8223 17.6976 18.8354 17.7042L21.5854 19.0792C21.9559 19.2644 22.1061 19.7149 21.9208 20.0854C21.7356 20.4559 21.2851 20.6061 20.9146 20.4208L18.2769 19.102C17.1332 21.4118 14.7521 23 12 23C9.31022 23 6.97478 21.4829 5.80266 19.2577L3.04544 20.4394C2.66472 20.6026 2.22381 20.4262 2.06064 20.0455C1.89747 19.6648 2.07384 19.2238 2.45456 19.0607L5.25047 17.8624C5.08721 17.2694 5 16.6449 5 16V15.0044H2.25C1.83579 15.0044 1.5 14.6686 1.5 14.2544C1.5 13.8402 1.83579 13.5044 2.25 13.5044H5V10.7135L2.41459 9.42082C2.04411 9.23558 1.89394 8.78507 2.07918 8.41459C2.26442 8.04411 2.71493 7.89394 3.08541 8.07918L5.08274 9.07784C5.32205 8.12518 6.05837 7.36984 7 7.10352L7 6C7 4.5075 7.65394 3.16773 8.69092 2.25159L7.71967 1.28033C7.42678 0.987437 7.42678 0.512563 7.71967 0.21967ZM8.5 7H15.5L15.5 6C15.5 4.067 13.933 2.5 12 2.5C10.067 2.5 8.5 4.067 8.5 6L8.5 7ZM6.5 10.2662C6.50022 10.2558 6.50022 10.2453 6.5 10.2349V9.75C6.5 9.05964 7.05964 8.5 7.75 8.5H16.25C16.9404 8.5 17.5 9.05964 17.5 9.75V10.2349C17.4998 10.2453 17.4998 10.2558 17.5 10.2662V16C17.5 19.0376 15.0376 21.5 12 21.5C8.96243 21.5 6.5 19.0376 6.5 16V10.2662Z" fill="black"/>
</svg>

<svg xmlns="http://www.w3.org/2000/svg" width="24" height="24" viewBox="0 0 24 24"><path fill-rule="evenodd" d="M7.72.22a.75.75 0 011.06 0l1.204 1.203A4.983 4.983 0 0112 1c.718 0 1.4.151 2.016.423L15.22.22a.75.75 0 111.06 1.06l-.97.972A4.988 4.988 0 0117 6v1.104a2.755 2.755 0 011.918 1.974l1.997-.999a.75.75 0 11.67 1.342L19 10.714V13.5l2.251.003a.75.75 0 01-.002 1.5L19 15.001V16c0 .581-.07 1.146-.204 1.686a.79.79 0 01.04.018l2.75 1.375a.75.75 0 11-.671 1.342l-2.638-1.319A7 7 0 0112 23a7 7 0 01-6.197-3.742l-2.757 1.181a.75.75 0 01-.591-1.378l2.796-1.199A7.007 7.007 0 015 16v-.996H2.75a.75.75 0 010-1.5H5v-2.79L2.414 9.42a.75.75 0 01.67-1.342l1.998.999A2.755 2.755 0 017 7.104V6c0-1.493.654-2.832 1.691-3.748L7.72 1.28a.75.75 0 010-1.06zM8.5 7h7V6a3.5 3.5 0 10-7 0v1zm-2 3.266V9.75c0-.69.56-1.25 1.25-1.25h8.5c.69 0 1.25.56 1.25 1.25V16a5.5 5.5 0 11-11 0v-5.734z"/></svg>
